src/assets/sticker/malaysia.svg

<svg width="100" height="100" viewBox="0 0 100 100" fill="none" xmlns="http://www.w3.org/2000/svg">
<g id="malaysia">
<g id="Frame 1">
<path id="Union" d="M87.4259 11.7963H14.3704C7.42594 11.7963 1.79633 17.4259 1.79633 24.3704V78.2594C1.79633 85.2038 7.42593 90.8335 14.3704 90.8335H87.4259C94.3704 90.8335 100 85.2039 100 78.2594V24.3704C100 17.4259 94.3704 11.7963 87.4259 11.7963Z" fill="#605F5E" fill-opacity="0.3"/>
<path id="Union_2" d="M85.6296 10H12.5741C5.62962 10 0 15.6296 0 22.5741V76.4631C0 83.4076 5.6296 89.0372 12.5741 89.0372H85.6296C92.5741 89.0372 98.2037 83.4076 98.2037 76.4631V22.5741C98.2037 15.6296 92.5741 10 85.6296 10Z" fill="#F5F1EE"/>
<g id="flag-container">
<g clip-path="url(#clip0_793_1774)">
<g id="Malaysia (MY)" clip-path="url(#clip1_793_1774)">
<g id="Clip path group">
<mask id="mask0_793_1774" style="mask-type:luminance" maskUnits="userSpaceOnUse" x="11" y="21" width="77" height="58">
<g id="a">
<path id="Vector" d="M11 21H87.64V78.48H11V21Z" fill="white"/>
</g>
</mask>
<g mask="url(#mask0_793_1774)">
<g id="Group">
<path id="Vector_2" d="M11 21H87.64V78.48H11V21Z" fill="#CC0000"/>
<path id="Vector_3" d="M11 21H87.64V25.1074H11V21Z" fill="#CC0000"/>
<path id="Vector_4" d="M11 25.1074H87.64V29.2149H11V25.1074Z" fill="white"/>
<path id="Vector_5" d="M11 29.2149H87.64V33.3223H11V29.2149Z" fill="#CC0000"/>
<path id="Vector_6" d="M11 33.3223H87.64V37.4058H11V33.3223Z" fill="white"/>
<path id="Vector_7" d="M11 37.4177H87.64V41.5251H11V37.4177Z" fill="#CC0000"/>
<path id="Vector_8" d="M11 41.5251H87.64V45.6326H11V41.5251Z" fill="white"/>
<path id="Vector_9" d="M11 45.6326H87.64V49.74H11V45.6326Z" fill="#CC0000"/>
<path id="Vector_10" d="M11 49.74H87.64V53.8474H11V49.74Z" fill="white"/>
<path id="Vector_11" d="M11 53.8474H87.64V57.9549H11V53.8474Z" fill="#CC0000"/>
<path id="Vector_12" d="M11 57.9549H87.64V62.0623H11V57.9549Z" fill="white"/>
<path id="Vector_13" d="M11 62.0623H87.64V66.1457H11V62.0623Z" fill="#CC0000"/>
<path id="Vector_14" d="M11 66.1578H87.64V70.2652H11V66.1578Z" fill="white"/>
<path id="Vector_15" d="M11 70.2652H87.64V74.3726H11V70.2652Z" fill="#CC0000"/>
<path id="Vector_16" d="M11 74.3726H87.64V78.48H11V74.3726Z" fill="white"/>
<path id="Vector_17" d="M11 21.0599H49.32V53.9073H11V21.0599Z" fill="#000066"/>
<path id="Vector_18" d="M35.6502 31.1797C35.6838 30.9519 36.0123 30.9519 36.0459 31.1797L36.5665 34.7114L38.549 31.7807C38.6783 31.5896 38.975 31.7331 38.9054 31.9531L37.8359 35.3341L40.8973 33.5403C41.0965 33.4237 41.3022 33.6812 41.1444 33.8496L38.722 36.4358L42.2704 36.1588C42.5001 36.1409 42.573 36.4617 42.358 36.5448L39.0454 37.8249L42.358 39.105C42.573 39.188 42.5001 39.5089 42.2704 39.4909L38.722 39.214L41.1444 41.8001C41.3022 41.9686 41.0965 42.2261 40.8973 42.1094L37.8359 40.3157L38.8998 43.7151C38.9687 43.9351 38.6721 44.0778 38.5432 43.8867L36.5546 40.9384L36.0356 44.4588C36.002 44.6868 35.6729 44.6864 35.6398 44.4583L35.1295 40.9384L33.147 43.869C33.0178 44.0601 32.7211 43.9166 32.7907 43.6966L33.8602 40.3157L30.7913 42.1138C30.5924 42.2303 30.3867 41.9733 30.544 41.8047L32.9621 39.214L29.4179 39.4906C29.188 39.5085 29.1153 39.1875 29.3304 39.1046L32.6507 37.8249L29.338 36.5448C29.1231 36.4617 29.1959 36.1409 29.4257 36.1588L32.974 36.4358L30.5517 33.8496C30.3939 33.6812 30.5996 33.4237 30.7987 33.5403L33.8602 35.3341L32.7907 31.9444C32.7212 31.7242 33.0181 31.581 33.1472 31.7723L35.1295 34.7114L35.6502 31.1797ZM31.0353 29.5116C31.1399 29.5714 31.0582 29.7309 30.9433 29.6949C29.9076 29.3707 28.8164 29.2465 27.7286 29.3325C26.3138 29.4444 24.9494 29.9081 23.7594 30.6816C22.5695 31.455 21.5918 32.5137 20.9152 33.7612C20.2386 35.0088 19.8846 36.4057 19.8854 37.8249C19.8846 39.2441 20.2386 40.641 20.9152 41.8885C21.5918 43.1361 22.5695 44.1947 23.7594 44.9682C24.9494 45.7416 26.3138 46.2054 27.7286 46.3172C28.8183 46.4034 29.9112 46.2787 30.9484 45.9532C31.0633 45.9172 31.145 46.0765 31.0406 46.1364C29.8018 46.8475 28.4158 47.2747 26.9832 47.3815C25.2254 47.5125 23.4654 47.1559 21.8972 46.3511C20.3307 45.5451 19.0168 44.3229 18.0999 42.8186C17.183 41.3144 16.6986 39.5865 16.7 37.8249C16.7006 36.0637 17.1867 34.3367 18.1048 32.8338C19.023 31.3309 20.3376 30.1101 21.9044 29.3057C23.4712 28.5013 25.2293 28.1443 26.9858 28.2741C28.4151 28.3797 29.7982 28.8042 31.0353 29.5116Z" fill="#FFCC00"/>
</g>
</g>
</g>
</g>
<g id="filter" style="mix-blend-mode:screen">
<rect x="11" y="21" width="76.6481" height="57.4816" fill="#4A4A4A"/>
</g>
</g>
</g>
</g>
</g>
<defs>
<clipPath id="clip0_793_1774">
<rect x="10.7778" y="20.7778" width="76.6421" height="57.4816" rx="4" fill="white"/>
</clipPath>
<clipPath id="clip1_793_1774">
<rect width="76.64" height="57.48" fill="white" transform="translate(11 21)"/>
</clipPath>
</defs>
</svg>

<svg xmlns="http://www.w3.org/2000/svg" width="100" height="100" fill="none" xmlns:v="https://vecta.io/nano"><path d="M87.426 11.796H14.37c-6.944 0-12.574 5.63-12.574 12.574v53.889c0 6.945 5.63 12.574 12.574 12.574h73.056c6.945 0 12.574-5.63 12.574-12.574V24.37c0-6.944-5.63-12.574-12.574-12.574z" fill="#605f5e" fill-opacity=".3"/><path d="M85.63 10H12.574C5.63 10 0 15.63 0 22.574v53.889c0 6.945 5.63 12.574 12.574 12.574H85.63c6.945 0 12.574-5.63 12.574-12.574V22.574C98.204 15.63 92.574 10 85.63 10z" fill="#f5f1ee"/><g clip-path="url(#B)"><g clip-path="url(#C)"><mask id="A" maskUnits="userSpaceOnUse" x="11" y="21" width="77" height="58"><path d="M11 21H87.64V78.48H11V21Z" fill="#fff"/></mask><g mask="url(#A)"><path d="M11 21H87.64V78.48H11V21Z" fill="#c00"/><path d="M11 21h76.64v4.107H11V21z" fill="#c00"/><use href="#D" fill="#fff"/><path d="M11 29.215h76.64v4.107H11v-4.107z" fill="#c00"/><path d="M11 33.322h76.64v4.083H11v-4.083z" fill="#fff"/><path d="M11 37.418h76.64v4.107H11v-4.107z" fill="#c00"/><path d="M11 41.525h76.64v4.107H11v-4.107z" fill="#fff"/><path d="M11 45.633h76.64v4.107H11v-4.107z" fill="#c00"/><path d="M11 49.74h76.64v4.107H11V49.74z" fill="#fff"/><path d="M11 53.847h76.64v4.107H11v-4.107z" fill="#c00"/><path d="M11 57.955h76.64v4.108H11v-4.108z" fill="#fff"/><path d="M11 62.062h76.64v4.083H11v-4.083z" fill="#c00"/><path d="M11 66.158h76.64v4.107H11v-4.107z" fill="#fff"/><path d="M11 70.265h76.64v4.108H11v-4.108z" fill="#c00"/><path d="M11 74.373h76.64v4.107H11v-4.107z" fill="#fff"/><path d="M11 21.06h38.32v32.847H11V21.06z" fill="#006"/><path d="M35.65 31.18c.034-.228.362-.228.396 0l.521 3.532 1.983-2.931c.129-.191.426-.048.356.172l-1.069 3.381 3.061-1.794c.199-.117.405.141.247.309l-2.422 2.586 3.548-.277c.23-.018.303.303.088.386l-3.313 1.28 3.313 1.28c.215.083.142.404-.088.386l-3.548-.277 2.422 2.586c.158.169-.048.426-.247.309l-3.061-1.794 1.064 3.399c.069.22-.228.363-.357.172l-1.989-2.948-.519 3.52c-.034.228-.363.228-.396 0l-.51-3.52-1.983 2.931c-.129.191-.426.048-.356-.172l1.069-3.381-3.069 1.798c-.199.117-.405-.14-.247-.309l2.418-2.591-3.544.277c-.23.018-.303-.303-.087-.386l3.32-1.28-3.313-1.28c-.215-.083-.142-.404.088-.386l3.548.277-2.422-2.586c-.158-.168.048-.426.247-.309l3.061 1.794-1.069-3.39c-.069-.22.227-.363.356-.172l1.982 2.939.521-3.532zm-4.615-1.668c.105.06.023.219-.092.183-1.036-.324-2.127-.448-3.215-.362-1.415.112-2.779.576-3.969 1.349s-2.168 1.832-2.844 3.08-1.031 2.645-1.03 4.064.353 2.816 1.03 4.064 1.654 2.306 2.844 3.08 2.554 1.237 3.969 1.349a8.51 8.51 0 0 0 3.22-.364c.115-.036.197.123.092.183a9.58 9.58 0 0 1-9.143.215 9.58 9.58 0 0 1-5.197-8.526 9.58 9.58 0 0 1 5.204-8.519 9.58 9.58 0 0 1 9.131.206z" fill="#fc0"/></g></g><g style="mix-blend-mode:screen"><path fill="#4a4a4a" d="M11 21h76.648v57.482H11z"/></g></g><defs><clipPath id="B"><rect x="10.778" y="20.778" width="76.642" height="57.482" rx="4" fill="#fff"/></clipPath><clipPath id="C"><path fill="#fff" transform="translate(11 21)" d="M0 0h76.64v57.48H0z"/></clipPath><path id="D" d="M11 25.107h76.64v4.107H11v-4.107z"/></defs></svg>
